X: 34003
T: Reel Arthur
R: reel
M: 4/4
K: Amajor
|:A3c (3BcB A2|Acef ecAc|d2fd c2ec|BABc BAE2|
A3c (3BcB A2|Acef ecAc|d2fd c2ec|1 BABc A3E:|2 BABc A2cd||
|:ecAc ecAd|fdAd (3fgf ed|ceAc ecAc|dBBA B2cd|
ecAc ecAd|fdAd (3fgf ed|ceAc BABc|1 Aaec A2ed:|2 Aaec A2zE||

